16x16/apps/kerbal-space-program.svg

<svg xmlns="http://www.w3.org/2000/svg" width="16" height="16" version="1.1">
 <path style="fill:#868686" d="M 4.5 1 A 1.4999999 1.4999999 0 0 0 3 2.5 A 1.4999999 1.4999999 0 0 0 4.5 4 A 1.4999999 1.4999999 0 0 0 6 2.5 A 1.4999999 1.4999999 0 0 0 4.5 1 z M 11.5 1 A 1.4999999 1.4999999 0 0 0 10 2.5 A 1.4999999 1.4999999 0 0 0 11.5 4 A 1.4999999 1.4999999 0 0 0 13 2.5 A 1.4999999 1.4999999 0 0 0 11.5 1 z M 2 5 A 2 2.4999998 0 0 0 0 7.5 A 2 2.4999998 0 0 0 2 10 A 2 2.4999998 0 0 0 4 7.5 A 2 2.4999998 0 0 0 2 5 z M 14 5 A 1.9999998 2.4999998 0 0 0 12 7.5 A 1.9999998 2.4999998 0 0 0 14 10 A 1.9999998 2.4999998 0 0 0 16 7.5 A 1.9999998 2.4999998 0 0 0 14 5 z"/>
 <circle style="fill:#f4f4f7" cx="8" cy="8" r="7"/>
 <path style="fill:#17191e" d="M 14,7.7142859 C 14,10.870199 11.313708,12 8,12 4.6862915,12 2.0000001,10.870199 2.0000001,7.7142859 2.0000001,4.5583729 4.6862915,2 8,2 c 3.313708,0 6,2.5583729 6,5.7142859 z"/>
 <path style="fill:#84bd08" d="M 7.0527344 3.3554688 C 6.2986834 3.3786542 5.9688522 3.5401442 5.1738281 4.4667969 L 5.1015625 6.8378906 L 5.1308594 7.4921875 L 5.1445312 9.984375 C 5.2227154 10.658433 5.2668598 11.203207 5.3300781 11.675781 C 6.1372924 11.889154 7.0358382 12 8 12 C 8.9950328 12 9.9199493 11.882305 10.746094 11.654297 C 10.858299 10.66678 10.748271 9.3840042 10.871094 8.296875 L 10.925781 6.7089844 L 10.826172 4.9257812 C 10.572014 3.7677634 9.0892888 3.2949981 7.9804688 3.3554688 C 7.6019705 3.3554688 7.3040848 3.3477387 7.0527344 3.3554688 z"/>
 <path style="fill:#2e2e2e" d="M 5.0074654,5.0927938 5.1093015,7.4366255 C 5.4174442,6.2291582 4.6338019,4.1875389 6.1475936,4 6.9222865,3.9040259 7.0132809,5.0422301 7.5430828,5 8.0384633,4.9605131 8.0458787,3.8417982 9.3289802,4.1 10.765939,4.3891625 10.663921,5.9438353 10.920085,7.4366255 l 0.07897,-2.2169346 C 11.020446,4.2638324 10.675928,3.954295 10.198393,3.5546826 9.609836,3.1388368 8.9190857,3.0198655 8.0001396,3.0198655 7.0718223,2.9527577 6.0466325,3.2062684 5.3880775,3.8915113 4.9963484,4.2824128 4.9832334,4.5350782 5.0074654,5.0927938 Z"/>
 <circle style="fill:#f4f4f7" cx="6" cy="8" r="1"/>
 <circle style="fill:#17191e" cx="5.75" cy="8.25" r=".25"/>
 <path style="opacity:0.5;fill:none;stroke:#000000;stroke-width:0.5;stroke-linecap:round;stroke-linejoin:round" d="m 6.25,10.75 c 0,0 0.189312,0 1.6969287,0 1.5076167,0 1.8030713,0 1.8030713,0"/>
 <rect style="fill:#868686" width="8" height="2" x="4" y="13" rx="1" ry="1"/>
 <circle style="fill:#f4f4f7" cx="-10" cy="8" r="1" transform="scale(-1,1)"/>
 <circle style="fill:#17191e" cx="-10.25" cy="8.25" r=".25" transform="scale(-1,1)"/>
</svg>

<svg xmlns="http://www.w3.org/2000/svg" width="16" height="16"><path style="fill:#868686" d="M4.5 1A1.5 1.5 0 0 0 3 2.5 1.5 1.5 0 0 0 4.5 4 1.5 1.5 0 0 0 6 2.5 1.5 1.5 0 0 0 4.5 1zm7 0A1.5 1.5 0 0 0 10 2.5 1.5 1.5 0 0 0 11.5 4 1.5 1.5 0 0 0 13 2.5 1.5 1.5 0 0 0 11.5 1zM2 5a2 2.5 0 0 0-2 2.5A2 2.5 0 0 0 2 10a2 2.5 0 0 0 2-2.5A2 2.5 0 0 0 2 5zm12 0a2 2.5 0 0 0-2 2.5 2 2.5 0 0 0 2 2.5 2 2.5 0 0 0 2-2.5A2 2.5 0 0 0 14 5z"/><circle style="fill:#f4f4f7" cx="8" cy="8" r="7"/><path style="fill:#17191e" d="M14 7.714C14 10.87 11.314 12 8 12s-6-1.13-6-4.286C2 4.558 4.686 2 8 2s6 2.558 6 5.714z"/><path style="fill:#84bd08" d="M7.053 3.355c-.754.024-1.084.185-1.88 1.112l-.071 2.37.029.655.014 2.492c.078.674.122 1.22.185 1.692A10.48 10.48 0 0 0 8 12c.995 0 1.92-.118 2.746-.346.112-.987.002-2.27.125-3.357l.055-1.588-.1-1.783c-.254-1.158-1.737-1.631-2.846-1.57-.378 0-.676-.008-.927 0z"/><path style="fill:#2e2e2e" d="m5.007 5.093.102 2.344C5.417 6.229 4.634 4.187 6.148 4c.774-.096.865 1.042 1.395 1 .495-.04.503-1.158 1.786-.9 1.437.29 1.335 1.844 1.591 3.337L11 5.22c.02-.956-.324-1.266-.802-1.665C9.61 3.139 8.92 3.02 8 3.02c-.928-.067-1.953.186-2.612.872-.392.39-.405.643-.38 1.2z"/><circle style="fill:#f4f4f7" cx="6" cy="8" r="1"/><circle style="fill:#17191e" cx="5.75" cy="8.25" r=".25"/><path style="opacity:.5;fill:none;stroke:#000;stroke-width:.5;stroke-linecap:round;stroke-linejoin:round" d="M6.25 10.75h3.5"/><rect style="fill:#868686" width="8" height="2" x="4" y="13" rx="1" ry="1"/><circle style="fill:#f4f4f7" cx="-10" cy="8" r="1" transform="scale(-1 1)"/><circle style="fill:#17191e" cx="-10.25" cy="8.25" r=".25" transform="scale(-1 1)"/></svg>
